src/assets/duotone/Link1.svg

<svg width="24" height="24" viewBox="0 0 24 24"  xmlns="http://www.w3.org/2000/svg">
<path opacity="0.4" d="M10.9999 7.5V16.5C10.9999 17.05 10.5499 17.5 9.99989 17.5H7.49989C5.97989 17.5 4.60989 16.88 3.60989 15.89C2.66989 14.94 2.05989 13.65 1.99989 12.22C1.87989 9.08 4.61989 6.5 7.76989 6.5H9.99989C10.5499 6.5 10.9999 6.95 10.9999 7.5Z" />
<path opacity="0.4" d="M21.9998 11.78C22.1298 14.93 19.3898 17.5 16.2398 17.5H14.0098C13.4598 17.5 13.0098 17.05 13.0098 16.5V7.5C13.0098 6.95 13.4598 6.5 14.0098 6.5H16.5098C18.0298 6.5 19.3998 7.12 20.3998 8.11C21.3298 9.06 21.9398 10.35 21.9998 11.78Z" />
<path d="M16 12.75H8C7.59 12.75 7.25 12.41 7.25 12C7.25 11.59 7.59 11.25 8 11.25H16C16.41 11.25 16.75 11.59 16.75 12C16.75 12.41 16.41 12.75 16 12.75Z" />
</svg>

<?xml version="1.0" encoding="UTF-8"?>
<svg width="24" height="24" viewBox="0 0 24 24" xmlns="http://www.w3.org/2000/svg">
 <path d="m11 7.5v9c0 0.55-0.45 1-1 1h-2.5c-1.52 0-2.89-0.62-3.89-1.61-0.94-0.95-1.55-2.24-1.61-3.67-0.12-3.14 2.62-5.72 5.77-5.72h2.23c0.55001 0 1 0.45 1 1z" opacity=".4"/>
 <path d="m22 11.78c0.13 3.15-2.61 5.72-5.76 5.72h-2.23c-0.55 0-1-0.45-1-1v-9c0-0.55 0.45-1 1-1h2.5c1.52 0 2.89 0.62 3.89 1.61 0.93 0.95 1.54 2.24 1.6 3.67z" opacity=".4"/>
 <path d="m16 12.75h-8c-0.41 0-0.75-0.34-0.75-0.75s0.34-0.75 0.75-0.75h8c0.41 0 0.75 0.34 0.75 0.75s-0.34 0.75-0.75 0.75z"/>
</svg>
